X: 20044
T: Jimmy Flynn's
R: slide
M: 12/8
K: Dmajor
|:Add Bdd c2d cAF|AdA BdB cef edc|
Add Bdd c2d cAF|1 E2F GAB AFE D3:|2 E2F GAB AFE D2a||
|:fdB gdc e2f edc|afd cde ged c2a|
fdB gdc b2a gfe|fga gfe ABc d3:|

